X:228
T: Christus, die edle Blume
N: A0586
O: Europa, Mitteleuropa, Deutschland
N: Triller 1555
R: Romanze, Ballade, Lied, religioeses Lied
M: 4/1
L: 1/2
K: A
A | A2A2B2B2 | =c2c2B3
B | e2d2=c2B2 | A3B=c2
d2 | d2B2e2e2 | =c2d2d3
d | e2e2=c2d2 | =c4A4B4 | A6z

@@@ Tune index: 541
